X:1
T:4 Mélodies
T:Le bonheur s'effeuille et passe
T:à Madame Alfred Ott
T:4 Mélodies
T:4. Le bonheur s'effeuille et passe
T:Paroles et Musique de Marie Jaëll 
T:Traduction française de Charles Grandmougin 
T:Creative Commons copyright waiver (CC0 1.0 Universal)
T:Creative Commons copyright waiver (CC0 1.0 Universal)
T:Creative Commons copyright waiver (CC0 1.0 Universal)
C:Marie Jaëll
Z:Marie Jaëll (original lyrics)
Z:Creative Commons copyright waiver (CC0 1.0 Universal)
%%score 1 { ( 2 5 ) | ( 3 4 ) }
L:1/8
Q:1/4=52
M:2/4
K:C
V:1 treble nm="Chant\nVoice"
V:2 treble nm="Piano"
V:5 treble 
V:3 bass 
V:4 bass 
V:1
"^Lentement et très doux" z4 | z4 | z4 | z4 | z4 | z4 | z4 | z4 | z2 ^G3/2 G/ | A2 ^F2 | G3 G | %11
w: ||||||||Le bon-|\- heur s'ef-|feuille et|
 (E2 D2) | C2 z2 | z2 D3/2 G/ | G2 G G | (c2 B3/2) B/ | B2- B z | z A ^A A | B4- | B ^G E E | E4 | %21
w: pas- *|se|Com- me|pas- sent les|bel- * les|fleurs. _|Il n'est qu'un|son-|* ge qui s'ef-|fa-|
 _E2 z z/ _e/ |[K:C] _d2- d _D | _D2 z _d | _d2- d _D | _D2 z _G | F =E F _A | _G =D _E E/ z/ | %28
w: ce. Le|jour _ pa-|rait dans|l'âme _ en|pleurs, Mais|sa lu- mière en|vain flam- boi- e.|
 _c/ c/ __B z _G/ __E/ | __E2 _D D | =D2- D z | z4 | z2 z A | (_B2 _e) e | z _B/ B/ B3/2 =e/ | %35
w: La doul- eur et la|nuit qui l'é-|teint _||Sur|ter- * re|la di- vi- ne|
 d2 ^c _d/ =f/ | f2- f>_e | _d2 z _A | _A2- A A | G4 | z4 | z4 | G2 G G | F2 G3/2 A/ | D4 | %45
w: joi- e N'est qu'un|rê- * *|ve Ja-|mais _ at-|teint.|||De ces fuy-|an- tes chi-|mè-|
 ^D2 D2 | G4 | G G A G/ G/ | _A4 | G2 z2 ||[M:3/8] z3 | z3 | z3 | z3 | z3 | z3 | z3 |] %57
w: res Nous|vien-|nent les lar- mes a-|mè-|res!||||||||
V:2
 z4 | z4 | z4 | z4 | z4 | z4 | z4 | z4 | z4 | z4 | z4 | z4 | z4 | z4 | z4 | z4 | z4 | z4 | z4 | %19
 z4 | z4 | z4 |[K:C] z4 | z4 | z4 | z4 | z4 | z4 | z4 | z4 | z4 | z4 | z4 | z4 | z4 | z4 | z4 | %37
 z4 | z4 | z4 | z4 | z4 | z4 | z4 | z4 | z4 | z4 | z4 | z4 | z4 ||[M:3/8] z2 z | %51
 (!>![E-^G]2 [EA]) | z2 z | ([E-^F]2 [EG]) | z2 z | z2[K:bass]!pp! C, | !fermata!C,3 |] %57
V:3
 z4 | z4 | z4 | z4 | z4 | z4 | z4 | z4 | z4 | z4 | z4 | z4 | z4 |[K:treble] z4 | z4 | z4 | z4 | %17
 z4 | z4 | z2[K:bass] z2 | z4 | z4 |[K:C] z4 | z4 | z4 | z4 | z4 | z4 | z4 | z4 | z4 | z4 | z4 | %33
 z4 | z4 | z4 | z4 | z4 | z4 | z4 | z2 G,/D/D/[K:treble]G/ | z4 | z4 | z4 | z4 | z4 | z4 | z4 | %48
 z4 | z4 ||[M:3/8][K:bass] z z/ (G,,/ (3C,/E,/G,/) | z2 z | z z/ (E,,/ (3C,/E,/G,/) | z2 z | %54
!pp! z z/ G,,/ C,/E,/ | G,/C/ z!8vb(! [C,,,C,,] | [C,,,C,,]3!8vb)! |] %57
V:4
 x4 | x4 | x4 | x4 | x4 | x4 | x4 | x4 | x4 | x4 | x4 | x4 | x4 |[K:treble] x4 | x4 | x4 | x4 | %17
 x4 | x4 | x2[K:bass] x2 | x4 | x4 |[K:C] x4 | x4 | x4 | x4 | x4 | x4 | x4 | x4 | x4 | x4 | x4 | %33
 x4 | x4 | x4 | x4 | x4 | x4 | x4 | x7/2[K:treble] x/ | x4 | x4 | x4 | x4 | x4 | x4 | x4 | x4 | %49
 x4 ||[M:3/8][K:bass] !>!C,,2- C,,/ z/ | x3 | !>!C,,2- C,,/ z/ | x3 | C,,2- C,,/ z/ | x2!8vb(! x | %56
 x3!8vb)! |] %57
V:5
 x4 | x4 | x4 | x4 | x4 | x4 | x4 | x4 | x4 | x4 | x4 | x4 | x4 | x4 | x4 | x4 | x4 | x4 | x4 | %19
 x4 | x4 | x4 |[K:C] x4 | x4 | x4 | x4 | x4 | x4 | x4 | x4 | x4 | x4 | x4 | x4 | x4 | x4 | x4 | %37
 x4 | x4 | x4 | x4 | x4 | x4 | x4 | x4 | x4 | x4 | x4 | x4 | x4 ||[M:3/8] x3 | C2- C | x3 | C2- C | %54
 x3 | x2[K:bass] x | x3 |] %57

